assets/illustrations/multisize/32/docx.svg

<svg id="94dd6d4e-6249-44af-b19d-aedc1e99927d" data-name="ICONS" xmlns="http://www.w3.org/2000/svg" xmlns:xlink="http://www.w3.org/1999/xlink" viewBox="0 0 32 32"><defs><linearGradient id="df7698a3-1098-4a9c-a91a-1fb5f3dada65" x1="5.0842" y1="3.60755" x2="27.96138" y2="30.87151" gradientUnits="userSpaceOnUse"><stop offset="0" stop-color="#fff" stop-opacity="0"/><stop offset="0.86247" stop-color="#5e5e5e" stop-opacity="0.06315"/><stop offset="1" stop-opacity="0.1"/></linearGradient><linearGradient id="ed84a46f-8017-497a-bc1f-4adf5d927aaa" x1="22.14788" y1="9.10212" x2="26.11437" y2="5.13563" gradientUnits="userSpaceOnUse"><stop offset="0" stop-color="#fff" stop-opacity="0"/><stop offset="0.44604" stop-color="#fff" stop-opacity="0.00799"/><stop offset="0.63551" stop-color="#fff" stop-opacity="0.03616"/><stop offset="0.77636" stop-color="#fff" stop-opacity="0.08493"/><stop offset="0.8924" stop-color="#fff" stop-opacity="0.15385"/><stop offset="0.99328" stop-color="#fff" stop-opacity="0.24291"/><stop offset="1" stop-color="#fff" stop-opacity="0.25"/></linearGradient><linearGradient id="fa80ddb6-91d4-41d9-bfd2-af239b2a551c" x1="9.5" y1="26.4375" x2="9.5" y2="9.52504" gradientUnits="userSpaceOnUse"><stop offset="0" stop-color="#fff" stop-opacity="0"/><stop offset="0.52587" stop-color="#fff" stop-opacity="0.00735"/><stop offset="0.71529" stop-color="#fff" stop-opacity="0.03396"/><stop offset="0.8503" stop-color="#fff" stop-opacity="0.0803"/><stop offset="0.95875" stop-color="#fff" stop-opacity="0.14595"/><stop offset="1" stop-color="#fff" stop-opacity="0.18"/></linearGradient><linearGradient id="f296b703-ba6b-4c28-a1ed-099091ba93eb" x1="11.28178" y1="29.35196" x2="11.61734" y2="26.21204" gradientUnits="userSpaceOnUse"><stop offset="0" stop-color="#828282" stop-opacity="0"/><stop offset="0.86247" stop-color="#303030" stop-opacity="0.12631"/><stop offset="1" stop-opacity="0.2"/></linearGradient><linearGradient id="5f631620-22ba-4f7d-ac07-d5f324968699" x1="25" y1="10.9375" x2="25" y2="9.05834" gradientUnits="userSpaceOnUse"><stop offset="0" stop-color="#828282" stop-opacity="0"/><stop offset="0.86247" stop-color="#303030" stop-opacity="0.06315"/><stop offset="1" stop-opacity="0.1"/></linearGradient></defs><title>FileTypeIcons_Master_All_NEW</title><polygon points="28 29 8 29 8 3 23 3 28 8 28 29" fill="#fff"/><path d="M23,2H7V30H29V8Zm0,1.5L27.5,8H23ZM28,29H8V3H22V9h6Z" fill="#949494"/><rect x="16" y="11" width="10" height="1" fill="#c8c8c8"/><rect x="16" y="13" width="10" height="1" fill="#c8c8c8"/><rect x="16" y="15" width="10" height="1" fill="#c8c8c8"/><rect x="16" y="17" width="10" height="1" fill="#c8c8c8"/><rect x="16" y="19" width="10" height="1" fill="#c8c8c8"/><rect x="16" y="21" width="10" height="1" fill="#c8c8c8"/><rect x="16" y="23" width="10" height="1" fill="#c8c8c8"/><rect x="16" y="25" width="10" height="1" fill="#c8c8c8"/><rect x="10" y="5" width="6" height="1" fill="#c8c8c8"/><polygon points="3 11 16 9 16 27 3 25 3 11" fill="#2b579a"/><path d="M14.31248,15l-1.80407,7H10.80428L9.67136,17.50907a3.83376,3.83376,0,0,1-.10948-.78592h-.019a4.87626,4.87626,0,0,1-.12376.78592L8.2576,22H6.48207L4.68748,15H6.36783l.96155,4.66179a5.71529,5.71529,0,0,1,.09044.80055h.02856a3.9659,3.9659,0,0,1,.138-.82008L8.82406,15h1.647l1.11863,4.70084a5.89439,5.89439,0,0,1,.10948.75174h.019a5.143,5.143,0,0,1,.1-.781L12.76069,15Z" fill="#fff"/><path d="M29,8,23,2H7V30H29Z" fill="url(#df7698a3-1098-4a9c-a91a-1fb5f3dada65)"/><polygon points="7 2 7 3 22 3 22 9 28 9 28 24.5 29 24.5 29 8 23 2 7 2" fill="url(#ed84a46f-8017-497a-bc1f-4adf5d927aaa)"/><polygon points="16 9 3 11 3 25 16 27 16 9" fill="url(#fa80ddb6-91d4-41d9-bfd2-af239b2a551c)"/><polygon points="16 29 7 29 7 25.62 16 27 16 29" fill="url(#f296b703-ba6b-4c28-a1ed-099091ba93eb)"/><rect x="22" y="9" width="6" height="2" fill="url(#5f631620-22ba-4f7d-ac07-d5f324968699)"/></svg>

<?xml version="1.0" encoding="utf-8"?>
<!-- Generator: Adobe Illustrator 21.1.0, SVG Export Plug-In . SVG Version: 6.00 Build 0)  -->
<svg version="1.1" xmlns="http://www.w3.org/2000/svg" xmlns:xlink="http://www.w3.org/1999/xlink" x="0px" y="0px"
	 viewBox="0 0 32 32" enable-background="new 0 0 32 32" xml:space="preserve">
<g id="TEMPLATE" display="none">
	<g display="inline">
		<path fill="#D0D0D0" d="M32,0v32H0V0H32 M33-1h-1H0h-1v1v32v1h1h32h1v-1V0V-1L33-1z"/>
	</g>
	<g display="inline" opacity="0.1">
		<path fill="#FF3A6D" d="M30,2v28H2V2H30 M32,0H0v32h32V0L32,0z"/>
	</g>
</g>
<g id="ICONS">
	<g>
		<polygon fill="#FFFFFF" points="28,29 8,29 8,3 23,3 28,8 		"/>
		<path fill="#949494" d="M23,2H7v28h22V8L23,2z M23,3.5L27.5,8H23V3.5z M28,29H8V3h14v6h6V29z"/>
	</g>
	<rect x="16" y="11" fill="#C8C8C8" width="10" height="1"/>
	<rect x="16" y="13" fill="#C8C8C8" width="10" height="1"/>
	<rect x="16" y="15" fill="#C8C8C8" width="10" height="1"/>
	<rect x="16" y="17" fill="#C8C8C8" width="10" height="1"/>
	<rect x="16" y="19" fill="#C8C8C8" width="10" height="1"/>
	<rect x="16" y="21" fill="#C8C8C8" width="10" height="1"/>
	<rect x="16" y="23" fill="#C8C8C8" width="10" height="1"/>
	<rect x="16" y="25" fill="#C8C8C8" width="10" height="1"/>
	<rect x="10" y="5" fill="#C8C8C8" width="6" height="1"/>
	<polygon fill="#2B579A" points="3,11 16,9 16,27 3,25 	"/>
	<g>
		<path fill="#FFFFFF" d="M14.3125,15l-1.8041,7h-1.7041l-1.1329-4.4909c-0.0602-0.2343-0.0969-0.4962-0.1095-0.7859h-0.019
			c-0.0286,0.319-0.0697,0.5809-0.1238,0.7859L8.2576,22H6.4821l-1.7946-7h1.6803l0.9615,4.6618
			c0.0412,0.1986,0.0714,0.4654,0.0904,0.8006h0.0286c0.0126-0.2505,0.0588-0.5239,0.138-0.8201L8.8241,15h1.647l1.1186,4.7008
			c0.0412,0.1726,0.0778,0.4231,0.1095,0.7517h0.019c0.0126-0.257,0.0459-0.5174,0.1-0.781L12.7607,15H14.3125z"/>
	</g>
	<linearGradient id="SVGID_1_" gradientUnits="userSpaceOnUse" x1="5.0842" y1="3.6075" x2="27.9614" y2="30.8715">
		<stop  offset="0" style="stop-color:#FFFFFF;stop-opacity:0"/>
		<stop  offset="0.2264" style="stop-color:#FCFCFC;stop-opacity:0.0226"/>
		<stop  offset="0.3626" style="stop-color:#F4F4F4;stop-opacity:0.0363"/>
		<stop  offset="0.475" style="stop-color:#E6E6E6;stop-opacity:0.0475"/>
		<stop  offset="0.5744" style="stop-color:#D1D1D1;stop-opacity:0.0574"/>
		<stop  offset="0.6652" style="stop-color:#B7B7B7;stop-opacity:0.0665"/>
		<stop  offset="0.7498" style="stop-color:#979797;stop-opacity:0.075"/>
		<stop  offset="0.8297" style="stop-color:#707070;stop-opacity:0.083"/>
		<stop  offset="0.9057" style="stop-color:#444444;stop-opacity:0.0906"/>
		<stop  offset="0.9761" style="stop-color:#121212;stop-opacity:0.0976"/>
		<stop  offset="1" style="stop-color:#000000;stop-opacity:0.1"/>
	</linearGradient>
	<path fill="url(#SVGID_1_)" d="M29,8l-6-6H7v28h22V8z"/>
	<linearGradient id="SVGID_2_" gradientUnits="userSpaceOnUse" x1="22.1479" y1="9.1021" x2="26.1144" y2="5.1356">
		<stop  offset="0" style="stop-color:#FFFFFF;stop-opacity:0"/>
		<stop  offset="0.8537" style="stop-color:#FFFFFF;stop-opacity:0.2134"/>
		<stop  offset="1" style="stop-color:#FFFFFF;stop-opacity:0.25"/>
	</linearGradient>
	<polygon fill="url(#SVGID_2_)" points="7,2 7,3 22,3 22,9 28,9 28,24.5 29,24.5 29,8 23,2 	"/>
	<linearGradient id="SVGID_3_" gradientUnits="userSpaceOnUse" x1="9.5" y1="26.4375" x2="9.5" y2="9.525">
		<stop  offset="0" style="stop-color:#FFFFFF;stop-opacity:0"/>
		<stop  offset="0.8587" style="stop-color:#FFFFFF;stop-opacity:0.1546"/>
		<stop  offset="1" style="stop-color:#FFFFFF;stop-opacity:0.18"/>
	</linearGradient>
	<polygon fill="url(#SVGID_3_)" points="16,9 3,11 3,25 16,27 	"/>
	<linearGradient id="SVGID_4_" gradientUnits="userSpaceOnUse" x1="11.2818" y1="29.352" x2="11.6173" y2="26.212">
		<stop  offset="0" style="stop-color:#828282;stop-opacity:0"/>
		<stop  offset="0.2812" style="stop-color:#7F7F7F;stop-opacity:0.0562"/>
		<stop  offset="0.4503" style="stop-color:#777777;stop-opacity:0.0901"/>
		<stop  offset="0.5899" style="stop-color:#696969;stop-opacity:0.118"/>
		<stop  offset="0.7133" style="stop-color:#545454;stop-opacity:0.1427"/>
		<stop  offset="0.8259" style="stop-color:#3A3A3A;stop-opacity:0.1652"/>
		<stop  offset="0.9294" style="stop-color:#1A1A1A;stop-opacity:0.1859"/>
		<stop  offset="1" style="stop-color:#000000;stop-opacity:0.2"/>
	</linearGradient>
	<polygon fill="url(#SVGID_4_)" points="16,29 7,29 7,25.62 16,27 	"/>
	<linearGradient id="SVGID_5_" gradientUnits="userSpaceOnUse" x1="25" y1="10.9375" x2="25" y2="9.0583">
		<stop  offset="0" style="stop-color:#828282;stop-opacity:0"/>
		<stop  offset="0.2812" style="stop-color:#7F7F7F;stop-opacity:0.0281"/>
		<stop  offset="0.4503" style="stop-color:#777777;stop-opacity:0.045"/>
		<stop  offset="0.5899" style="stop-color:#696969;stop-opacity:0.059"/>
		<stop  offset="0.7133" style="stop-color:#545454;stop-opacity:0.0713"/>
		<stop  offset="0.8259" style="stop-color:#3A3A3A;stop-opacity:0.0826"/>
		<stop  offset="0.9294" style="stop-color:#1A1A1A;stop-opacity:0.0929"/>
		<stop  offset="1" style="stop-color:#000000;stop-opacity:0.1"/>
	</linearGradient>
	<rect x="22" y="9" fill="url(#SVGID_5_)" width="6" height="2"/>
</g>
</svg>
